Origami/24x24/apps/preferences-system-brightness-lock.svg

<svg width="24" height="24" version="1" xmlns="http://www.w3.org/2000/svg">
 <path d="m12 1.5-3.3145 2.9996h-4.6855v4.6855l-3 3.3149 3 3.314v4.6856h4.6855l3.3145 3.0004 3.3145-3.0008h4.6855v-4.6856l3-3.3144-3-3.3144v-4.6856h-4.6855z" style="opacity:.2"/>
 <path d="m12 1-3.3145 2.9996h-4.6855v4.6855l-3 3.3149 3 3.314v4.6856h4.6855l3.3145 3.0004 3.3145-3.0008h4.6855v-4.6856l3-3.3144-3-3.3144v-4.6856h-4.6855z" style="fill:#325f78"/>
 <path d="m12 6.5a6 6 0 0 0 -6 6 6 6 0 0 0 6 6v-12z" style="opacity:.2"/>
 <path d="m12 6a6 6 0 0 0 -6 6 6 6 0 0 0 6 6v-12z" style="fill:#ffffff"/>
 <path d="m12 1l-3.3144531 3h-4.6855469v0.5h4.6855469l3.3144531-3 3.314453 3h4.685547v-0.5h-4.685547l-3.314453-3zm-8 7.6855469l-3 3.3144531 0.2265625 0.25 2.7734375-3.0644531v-0.5zm16 0v0.5l2.773438 3.0644531 0.226562-0.25-3-3.3144531z" style="fill:#ffffff;opacity:.1"/>
</svg>

<svg xmlns="http://www.w3.org/2000/svg" width="24" height="24" version="1">
 <path style="opacity:0.2" d="M 12,1.5 8.6855,4.4996 4,4.4996 4,9.1851 1,12.5 l 3,3.314 0,4.6856 4.6855,0 L 12,23.5 l 3.3145,-3.0008 4.6855,0 0,-4.6856 3,-3.3144 -3,-3.3144 0,-4.6856 -4.6855,0 z"/>
 <path style="fill:#325f78" d="M 12,1 8.6855,3.9996 4,3.9996 4,8.6851 1,12 l 3,3.314 0,4.6856 4.6855,0 L 12,23 l 3.3145,-3.0008 4.6855,0 0,-4.6856 3,-3.3144 -3,-3.3144 0,-4.6856 -4.6855,0 z"/>
 <path style="opacity:0.2" d="m 12,6.5 a 6,6 0 0 0 -6,6 6,6 0 0 0 6,6 l 0,-12 z"/>
 <path style="fill:#ffffff" d="m 12,6 a 6,6 0 0 0 -6,6 6,6 0 0 0 6,6 L 12,6 Z"/>
 <path style="fill:#ffffff;opacity:0.1" d="M 12 1 L 8.6855469 4 L 4 4 L 4 4.5 L 8.6855469 4.5 L 12 1.5 L 15.314453 4.5 L 20 4.5 L 20 4 L 15.314453 4 L 12 1 z M 4 8.6855469 L 1 12 L 1.2265625 12.25 L 4 9.1855469 L 4 8.6855469 z M 20 8.6855469 L 20 9.1855469 L 22.773438 12.25 L 23 12 L 20 8.6855469 z"/>
</svg>
